src/images/icons/doc.svg

<svg xmlns="http://www.w3.org/2000/svg" width="30" height="36"><path d="M0 13.9v-11-1C.1.6.6 0 1.8 0H12c.4 0 .9.3 1.2.6 2.4 2.3 4.7 4.7 7.1 7 .5.6.7 1.1.7 1.8v16.3c0 1.6-.6 2.2-2.2 2.2H2.2c-1.7 0-2.2-.5-2.2-2.3V13.9zm19.8-4.8h-7.9v-4c0-1.3.2-2.6-.1-3.8-2.5-.3-9.6-.2-10.7.2V26c0 .5.3.7.7.7h17.1c.7 0 .9-.3.9-1v-.6-14.5-1.5zm-6.7-6.6v5.4h5.4l-5.4-5.4z" fill="#5ab947"/></svg>

<!-- Generator: Adobe Illustrator 21.0.2, SVG Export Plug-In  -->
<svg version="1.1"
	 xmlns="http://www.w3.org/2000/svg" xmlns:xlink="http://www.w3.org/1999/xlink" xmlns:a="http://ns.adobe.com/AdobeSVGViewerExtensions/3.0/"
	 x="0px" y="0px" width="21px" height="27.9px" viewBox="0 0 21 27.9" style="enable-background:new 0 0 21 27.9;"
	 xml:space="preserve">
<style type="text/css">
	.st0{fill:#5AB947;}
</style>
<defs>
</defs>
<path class="st0" d="M0,13.9c0-3.7,0-7.3,0-11c0-0.3,0-0.7,0-1C0.1,0.6,0.6,0,1.8,0c3.4,0,6.8,0,10.2,0c0.4,0,0.9,0.3,1.2,0.6
	c2.4,2.3,4.7,4.7,7.1,7C20.8,8.2,21,8.7,21,9.4c0,3.8,0,7.6,0,11.4c0,1.6,0,3.3,0,4.9c0,1.6-0.6,2.2-2.2,2.2c-5.5,0-11,0-16.6,0
	c-1.7,0-2.2-0.5-2.2-2.3C0,21.7,0,17.8,0,13.9z M19.8,9.1c-2.7,0-5.2,0-7.9,0c0-1.4,0-2.7,0-4c0-1.3,0.2-2.6-0.1-3.8
	C9.3,1,2.2,1.1,1.1,1.5c0,0.4,0,0.8,0,1.2c0,7.5,0,15,0,22.5c0,0.3,0,0.5,0,0.8c0,0.5,0.3,0.7,0.7,0.7c0.3,0,0.6,0,0.9,0
	c5.1,0,10.2,0,15.4,0c0.3,0,0.5,0,0.8,0c0.7,0,0.9-0.3,0.9-1c0-0.2,0-0.4,0-0.6c0-4.8,0-9.6,0-14.5C19.8,10.2,19.8,9.8,19.8,9.1z
	 M13.1,2.5c0,1.7,0,3.5,0,5.4c1.9,0,3.7,0,5.4,0C16.7,6.1,14.9,4.3,13.1,2.5z"/>
</svg>
